svgs/mgit.svg

<svg width="192" height="192" viewBox="0 0 192 192" fill="none" xmlns="http://www.w3.org/2000/svg">
<path fill-rule="evenodd" clip-rule="evenodd" d="M87 63.5001C87 58.2884 91.2885 54 96.5 54C101.712 54 106 58.2884 106 63.5001C106 68.7116 101.712 73 96.5 73C91.2885 73 87 68.7116 87 63.5001Z" stroke="black" stroke-width="8"/>
<path fill-rule="evenodd" clip-rule="evenodd" d="M87 130.5C87 125.288 91.2885 121 96.5 121C101.712 121 106 125.288 106 130.5C106 135.712 101.712 140 96.5 140C91.2885 140 87 135.712 87 130.5Z" stroke="black" stroke-width="8"/>
<path fill-rule="evenodd" clip-rule="evenodd" d="M120 96.5001C120 91.2884 124.288 87 129.5 87C134.712 87 139 91.2884 139 96.5001C139 101.712 134.712 106 129.5 106C124.288 106 120 101.712 120 96.5001Z" stroke="black" stroke-width="8"/>
<path d="M75 42L88 55" stroke="black" stroke-width="10" stroke-linecap="round" stroke-linejoin="round"/>
<path d="M105 72L121 88" stroke="black" stroke-width="10" stroke-linecap="round" stroke-linejoin="round"/>
<path d="M96 75L96 119" stroke="black" stroke-width="10" stroke-linecap="round"/>
<rect x="18.2183" y="96" width="110" height="110" rx="6" transform="rotate(-45 18.2183 96)" stroke="black" stroke-width="10" stroke-linejoin="round"/>
</svg>

<svg xmlns="http://www.w3.org/2000/svg" width="192" height="192" fill="none" stroke="#000" stroke-linecap="round" stroke-width="10" viewBox="0 0 192 192"><path stroke-width="8" d="M87 63.5c0-5.212 4.288-9.5 9.5-9.5s9.5 4.288 9.5 9.5-4.288 9.5-9.5 9.5-9.5-4.288-9.5-9.5Zm0 67c0-5.212 4.288-9.5 9.5-9.5s9.5 4.288 9.5 9.5-4.288 9.5-9.5 9.5-9.5-4.288-9.5-9.5Zm33-34c0-5.212 4.288-9.5 9.5-9.5s9.5 4.288 9.5 9.5-4.288 9.5-9.5 9.5-9.5-4.288-9.5-9.5Z"/><path d="m75 42 13 13m17 17 16 16M96 75v44"/><rect width="110" height="110" x="18.218" y="96" rx="6" transform="rotate(-45 18.218 96)"/></svg>
